X: 949
T: The Humors Of Trim.
B:O'Neill's 949
N:"collected by F. O'Neill."
Z:Transcribed by Tom Keays (htkeays@mailbox.syr.edu)
Z:abc 1.6
M:6/8
R:Jig
L:1/8
K:D
FEF DED | D2 d cAG | FEF DED | A2 F GFE |
FEF DED | D2 d cAG | FAF GBG | A2 F GFE :|
D2 d cAd | cAd cAG | F2 d cAd | A2 F GFE |
D2 d cAd | fed cAG | FAF GBG | A2 F GFE :|


